X: 231
T: Finerty's frolic
C: anon.
O: Ireland
B: Francis O'Neill: "The Dance Music of Ireland" (1907) no. 231
R: Double jig
Z: Transcribed by Frank Nordberg - http://www.musicaviva.com
F: http://www.musicaviva.com/abc/tunes/ireland/oneill-1001/oneill-1001-023
1.abc
M: 6/8
L: 1/8
K: G
(G/F/)|DGG GAB|cAG FGE|{c}BAB cAF|AGG G2F|DGG GAB|{d}CAG FGA|(d/e/f)d cAF
|AGG G2:|
|:d|def g2g|fed cAF|Ggf gag|fdd d2e|(f/g/a)g fed|cAG FGA|(d/e/f)d cAF|AGG
 G2:|
W:
W:
W: From Musica Viva - http://www.musicaviva.com
W: the Internet center for free sheet music downloads.


